actions/symbolic/zoom-fit-best-symbolic.svg

<svg xmlns="http://www.w3.org/2000/svg" viewBox="0 0 16 16">
  <defs id="defs3051">
    <style type="text/css" id="current-color-scheme">
      .ColorScheme-Text {
        color:#bebebe;
      }
      </style>
  </defs>
 <path 
       style="fill:currentColor;fill-opacity:1;stroke:none"
	 class="ColorScheme-Text"
        d="M 3.1875 2.0039062 C 2.5248 2.0039062 2 2.5528462 2 3.2226562 L 2 7.0039062 L 4 7.0039062 L 4 4.0039062 L 7 4.0039062 L 7 2.0039062 L 3.1875 2.0039062 z M 9 2.0039062 L 9 4.0039062 L 12 4.0039062 L 12 7.0039062 L 14 7.0039062 L 14 3.2226562 C 14 2.5528962 13.4752 2.0039062 12.8125 2.0039062 L 9 2.0039062 z M 2 9.0039062 L 2 12.785156 C 2 13.454916 2.5248 14.003906 3.1875 14.003906 L 7 14.003906 L 7 12.003906 L 4 12.003906 L 4 9.0039062 L 2 9.0039062 z M 12 9.0039062 L 12 12.003906 L 9 12.003906 L 9 14.003906 L 12.8125 14.003906 C 13.4752 14.003906 14 13.454966 14 12.785156 L 14 9.0039062 L 12 9.0039062 z "
     />
</svg>

<svg viewBox="0 0 16 16" xmlns="http://www.w3.org/2000/svg"><path d="m3.1875 2.0039062c-.6627 0-1.1875.54894-1.1875 1.21875v3.78125h2v-3h3v-2zm5.8125 0v2h3v3h2v-3.78125c0-.66976-.5248-1.21875-1.1875-1.21875zm-7 7v3.7812498c0 .66976.5248 1.21875 1.1875 1.21875h3.8125v-2h-3v-2.9999998zm10 0v2.9999998h-3v2h3.8125c.6627 0 1.1875-.54894 1.1875-1.21875v-3.7812498z" fill="#bebebe"/></svg>
